web/workspace/public/assets/icons/white/microchip.svg

<svg xmlns="http://www.w3.org/2000/svg" width="30" height="30" viewBox="0 0 30 30"><path d="M9 21h12V9H9v12zm2-10h8v8h-8v-8zm1-10h-2v6h2V1zm8 0h-2v6h2V1zm-4 0h-2v6h2V1zm-6 28h2v-6h-2v6zm8 0h2v-6h-2v6zm-4 0h2v-6h-2v6zm9-19v2h6v-2h-6zm0 10h6v-2h-6v2zm0-4h6v-2h-6v2zM1 12h6v-2H1v2zm0 8h6v-2H1v2zm0-4h6v-2H1v2z" fill="#fff"/></svg>

<?xml version="1.0" encoding="iso-8859-1"?>
<!-- Generator: Adobe Illustrator 14.0.0, SVG Export Plug-In . SVG Version: 6.00 Build 43363)  -->
<!DOCTYPE svg PUBLIC "-//W3C//DTD SVG 1.1//EN" "http://www.w3.org/Graphics/SVG/1.1/DTD/svg11.dtd">
<svg version="1.1" id="Layer_1" xmlns="http://www.w3.org/2000/svg" xmlns:xlink="http://www.w3.org/1999/xlink" x="0px" y="0px"
	 width="30px" height="30px" viewBox="0 0 30 30" style="enable-background:new 0 0 30 30;" xml:space="preserve">
<path style="fill:#fff" d="M9,21h12V9H9V21z M11,11h8v8h-8V11z M12,1h-2v6h2V1z M20,1h-2v6h2V1z M16,1h-2v6h2V1z M10,29h2v-6h-2V29z M18,29h2v-6h-2V29
	z M14,29h2v-6h-2V29z M23,10v2h6v-2H23z M23,20h6v-2h-6V20z M23,16h6v-2h-6V16z M1,12h6v-2H1V12z M1,20h6v-2H1V20z M1,16h6v-2H1V16z
	"/>
</svg>
